X: 054
M: 6/8
L: 1/8
K: Gm
(G>AG) Bcd | (g/a/b)a g2d | fdf {d}c2B | Afd cAF |\
(B>cB) fdB | bab fdB | c=ef Bdf | Acf cAF |\


